lib/flags/m/028.svg

<svg xmlns="http://www.w3.org/2000/svg" fill="none" viewBox="0 0 20 15"><mask id="028_svg__a" width="20" height="15" x="0" y="0" mask-type="alpha" maskUnits="userSpaceOnUse"><path fill="#fff" d="M0 0H20V15H0z"/></mask><g mask="url(#028_svg__a)"><path fill="#1B1B1B" fill-rule="evenodd" d="M0 0H20V15H0V0Z" clip-rule="evenodd"/><path fill="#F9D313" fill-rule="evenodd" d="M10 8.75L8.60924 11.1246L8.64411 8.50242L6.10319 10.1592L7.55678 7.80872L4.36894 8.41942L6.95335 6.8063L3.75 6.25L6.95335 5.6937L4.36894 4.08058L7.55678 4.69128L6.10319 2.34084L8.64411 3.99758L8.60924 1.37536L10 3.75L11.3908 1.37536L11.3559 3.99758L13.8968 2.34084L12.4432 4.69128L15.6311 4.08058L13.0466 5.6937L16.25 6.25L13.0466 6.8063L15.6311 8.41942L12.4432 7.80872L13.8968 10.1592L11.3559 8.50242L11.3908 11.1246L10 8.75Z" clip-rule="evenodd"/><path fill="#F1F9FF" d="M3.75 8.75H16.25V15H3.75z"/><path fill="#4A80E8" d="M1.25 6.25H18.75V8.75H1.25z"/><path fill="#E31D1C" fill-rule="evenodd" d="M0 3.75L10 15L20 3.75V15H0V3.75Z" clip-rule="evenodd"/></g></svg>

<svg xmlns="http://www.w3.org/2000/svg" fill="none" viewBox="0 0 20 15"><mask id="028_svg__a" width="20" height="15" x="0" y="0" maskUnits="userSpaceOnUse"><path fill="#fff" d="M0 0h20v15H0z"/></mask><g mask="url(#028_svg__a)"><path fill="#1B1B1B" fill-rule="evenodd" d="M0 0h20v15H0V0z" clip-rule="evenodd"/><path fill="#F9D313" fill-rule="evenodd" d="M10 8.75l-1.39 2.375.034-2.623-2.54 1.657 1.453-2.35-3.188.61 2.584-1.613L3.75 6.25l3.203-.556L4.37 4.08l3.188.61-1.454-2.35 2.541 1.657-.035-2.623L10 3.75l1.39-2.375-.034 2.623 2.54-1.657-1.453 2.35 3.188-.61-2.584 1.613 3.203.556-3.203.556L15.63 8.42l-3.188-.61 1.454 2.35-2.541-1.657.035 2.623L10 8.75z" clip-rule="evenodd"/><path fill="#F1F9FF" d="M3.75 8.75h12.5V15H3.75z"/><path fill="#4A80E8" d="M1.25 6.25h17.5v2.5H1.25z"/><path fill="#E31D1C" fill-rule="evenodd" d="M0 3.75L10 15 20 3.75V15H0V3.75z" clip-rule="evenodd"/></g></svg>
